X: 9242
T: Dan Lander's
R: jig
M: 6/8
K: Dmajor
|:A2d def|dcB A2F|A2d def|g2e edB|
A2d def|dcB A2G|F2D GEC|1 D3 DE/F/G:|2 D3 D2A,||
|:DFA AB=c|GFE E2A,|DFA ABc|d2A F2E|
DFA AB=c|GFE E2c|dAF GEC|1 D3 D2A,:|2 D3 DE/F/G||

